!!!COM: Bach, Johann Sebastian
!!!OTL@@DE: 365. Jesu, meiner Seelen Wonne
!!!OTL@EN: Jesus, joy of my soul
!!!SCA: BWV 359
**kern	**kern	**kern	**kern
*staff2	*staff2	*staff1	*staff1
*Iorgan	*Iorgan	*Iorgan	*Iorgan
*>[A,A,B]	*>[A,A,B]	*>[A,A,B]	*>[A,A,B]
*>norep[A,B]	*>norep[A,B]	*>norep[A,B]	*>norep[A,B]
*>A	*>A	*>A	*>A
!bass	!tenor	!alto	!sprno
*clefF4	*clefF4	*clefG2	*clefG2
*k[f#c#g#]	*k[f#c#g#]	*k[f#c#g#]	*k[f#c#g#]
*met(C)	*met(C)	*met(C)	*met(C)
*M4/4	*M4/4	*M4/4	*M4/4
*MM60	*MM60	*MM60	*MM60
=1-	=1-	=1-	=1-
4A\	4e/	4a\	4cc#/
4F#\	4f#/	4a\	4dd/
4C#\	8e/L	4g#\	4ee/
.	8d/J	.	.
4F#\	4c#/	4a\	4ee/
=2	=2	=2	=2
4BB\	4d/	8a\L	4dd/
.	.	8g#\J	.
8C#\L	4e/	4a\	4cc#/
8D\J	.	.	.
4E\	4e/	4g#\	4b/
4E;\	4e;/	4g#;\	4b;/
=3	=3	=3	=3
8A\L	4e/	4a\	4cc#/
8G#\J	.	.	.
4F#\	4f#/	4a\	4dd/
4G#\	4.e/	4.b\	8ee/L
.	.	.	8dd/J
4A\	.	.	4cc#/
.	16f#/LL	8a\	.
.	16gn/JJ	.	.
=4	=4	=4	=4
4D\	4f#/	4a\	4b/
4E\	8e/L	4g#\	4b/
.	8d/J	.	.
2AA;\	2c#;/	2e;\	2a;/
=5:|!	=5:|!	=5:|!	=5:|!
*>B	*>B	*>B	*>B
4E\	4e/	4g#\	4b/
8D\L	4e/	4a#\	4cc#/
8C#\J	.	.	.
8BB\L	4f#/	4b\	4dd/
8C#\J	.	.	.
8D\L	4f#/	4b\	4dd/
8E\J	.	.	.
=6	=6	=6	=6
4F#\	8f#/L	4b\	4cc#/
.	8gn/J	.	.
4F#\	8f#/L	4a#\	4cc#/
.	8e/J	.	.
2BB;\	2d;/	2f#;\	2b;/
=7	=7	=7	=7
!!linebreak: 2
4B\	4d/	4f#\	4dd/
8A\L	4c#/	4a\	4ee/
8Gn\J	.	.	.
8F#\L	4d/	[4a\	4ff#/
8E\J	.	.	.
4D\	4d/	8a\L]	4ff#/
.	.	16b\L	.
.	.	16ccn\JJ	.
=8	=8	=8	=8
4Gn\	4d/	4b\	4ee/
4A\	4c#/	8a\L	4ee/
.	.	8gn\J	.
2D;\	2A;/	2f#;\	2dd;/
=9	=9	=9	=9
8A\L	4A/	4e\	4cc#/
8G#\J	.	.	.
4F#\	4A/	4a\	4dd/
4Gn\	4B/	8e\L	4ee/
.	.	8f#\J	.
4AA#\	[4c#/	4gn\	4ee/
=10	=10	=10	=10
4BB\	8c#/L]	8f#\L	4dd/
.	[8B/J	8g#\J	.
8C#\L	4B/]	8e\L	4cc#/
8D\J	.	8f#\J	.
4E\	4e/	4g#\	4b/
4E;\	4e;/	4g#;\	4b;/
=11	=11	=11	=11
8AA\L	4e/	4a\	4cc#/
8A\J	.	.	.
8G#\L	4f#/	4a\	4dd/
8F#\J	.	.	.
8G#\L	4e/	8b\L	8ee/L
(8E\J	.	8g#\J	8dd/J
8A\L	4e/	4a\	4cc#/
8C#\J)	.	.	.
=12	=12	=12	=12
8D\L	4f#/	4a\	4b/
8BB\J	.	.	.
4E\	8e/L	4g#\	4b/
.	8d/J	.	.
2AA;\	2c#;/	2e;\	2a;/
==	==	==	==
*-	*-	*-	*-
!!!ENC: Craig Stuart Sapp
!!!END: 2004/12/06/
!!chor2scor: -l 2 -s 0.6 -o %b.pmx
